!!!!SEGMENT: pl-kk--kk-i-121--002_anonim--alleluia-ave-maria-2dum.krn
!!!cenid: 16xx:1350
!!!COM: Anonim
!!!COM-rismID: pe30004985
!!!CDT:
!!!CNT:
!!!OTL: Alleluia Ave Maria 2dum
!!!PDT:
!!!AGN: Sacred
!!!SMS-siglum: PL-Kk
!!!SMS-shelfmark: Kk.I.121
!!!SMS-shelfwork: 002 W
!!!SMS-variant:
!!!SMS-altvar:
!!!NIFC-rismSourceID: 1001153676
!!!NIFC-rismChildID: 1001153678
!!!NIFC-islandoraID: pl-kk:3460
!!!URL-pdf-islandora: https://repozytorium.nifc.pl/islandora/object/pl-kk%3A3460/datastream/PDF/view
!!!URL-scan: https://polish.musicsources.pl/pl/lokalizacje/galeria/rekopisy/5754 @EN{Scan on Polish Music Sources Website} @PL{Skany w portalu Dziedzictwo Muzyki Polskiej w otwartym dostępie}
!!!ONB-nifc: UWAGA: w zbiorze 1. Alleluia Ave Maria 1mum, 2. Alleluia Ave Maria 2dum (Virga Jesse floruit są częścią utworów)
!!!AIN: 1 alto 2 empty 2 tenor
!!!key:
**kern	**text	**kern	**fba	**text	**kern	**text	**kern	**text	**kern	**text
*part5	*part5	*part4	*part4	*part4	*part3	*part3	*part2	*part2	*part1	*part1
*staff5	*staff5	*staff4	*staff4	*staff4	*staff3	*staff3	*staff2	*staff2	*staff1	*staff1
*Iempty	*	*Iempty	*	*	*Itenor	*	*Ialto	*	*Itenor	*
*I"Baſso Ripieno.	*	*I"Baſso.	*	*	*I"Tenore	*	*I"Alto.	*	*I"Canto. in Tenore.	*
*I'b rip	*	*I'B	*	*	*I'T	*	*I'A	*	*I'S/T	*
*clefF4	*	*clefF4	*	*	*clefC4	*	*clefC3	*	*clefC4	*
*k[]	*	*k[]	*	*	*k[]	*	*k[]	*	*k[]	*
*d:	*	*d:	*	*	*d:	*	*d:	*	*d:	*
*M3/2	*	*M3/2	*	*	*M3/2	*	*M3/2	*	*M3/2	*
=1-	=1-	=1-	=1-	=1-	=1-	=1-	=1-	=1-	=1-	=1-
!LO:TX:t=P:problem=kreska pseudotaktowa	!	!LO:TX:t=P:problem=kreska pseudotaktowa	!	!	!LO:TX:t=P:problem=kreska pseudotaktowa	!	!	!	!LO:TX:t=P:global:problem=oddech/cezura na różnej wyoskości	!
1.r	.	1.r	.	.	1.r	.	2r	.	2r	.
.	.	.	.	.	.	.	2r	.	2r	.
*	*	*	*	*	*	*	*2\right	*	*	*
!	!	!	!	!	!	!	!LO:TX:t=P:problem=kreska pseudotaktowa	!	!LO:TX:t=P:problem=kreska pseudotaktowa	!
.	.	.	.	.	.	.	2f\	Al-	2D/	Al-
=2-	=2-	=2-	=2-	=2-	=2-	=2-	=2-	=2-	=2-	=2-
2r	.	2r	.	.	2r	.	1e	-le-	1A	-le-
2r	.	2r	.	.	2r	.	.	.	.	.
*2\right	*	*	*	*	*	*	*	*	*2\right	*
!LO:TX:t=P:problem=kreska pseudotaktowa	!	!LO:TX:t=P:problem=kreska pseudotaktowa	!	!	!LO:TX:t=P:problem=kreska pseudotaktowa	!	!LO:TX:t=P:problem=kreska pseudotaktowa	!	!LO:TX:t=P:problem=kreska pseudotaktowa	!
2D\	Al-	2D/	.	Al-	2D/	Al-	2f\	-lu-	2d\	-lu-
=3-	=3-	=3-	=3-	=3-	=3-	=3-	=3-	=3-	=3-	=3-
1D	-le-	1D	.	-le-	1A	-le-	1f	-ia	1A	-ia
*	*	*	*	*	*2\right	*	*	*	*	*ij
!	!	!LO:TX:t=P:problem=kreska pseudotaktowa	!	!	!LO:TX:t=P:problem=kreska pseudotaktowa	!	!	!	!LO:TX:t=P:problem=kreska pseudotaktowa	!
2BBn/	-lu-	2BB/	6\	-lu-	2d\	-lu-	2d\	.	2B\	Al-
=4-	=4-	=4-	=4-	=4-	=4-	=4-	=4-	=4-	=4-	=4-
!	!	!	!	!	!	!	!LO:TX:t=P:problem=kreska pseudotaktowa	!	!	!
4AA/	-ia	4AA/	.	-ia	1c	-ia	1.e	.	2c\	-le-
4BB/	.	4BB/	.	.	.	.	.	.	.	.
4C/	.	4C/	.	.	.	.	.	.	2A/	-lu-
4D/	.	4D/	.	.	.	.	.	.	.	.
*	*	*2\right	*	*	*	*ij	*	*	*	*
!	!	!LO:TX:t=P:problem=kreska pseudotaktowa	!	!	!LO:TX:t=P:problem=kreska pseudotaktowa	!	!	!	!	!
!LO:TX:t=P:problem=kreska pseudotaktowa	!	!	!	!	!	!	!	!	!LO:TX:t=P:problem=kreska pseudotaktowa	!
2E\	.	2E\	#	.	2Bn\	Al-	.	.	2G#X/	.
=5-	=5-	=5-	=5-	=5-	=5-	=5-	=5-	=5-	=5-	=5-
*	*ij	*	*	*ij	*	*	*	*	*	*
!	!	!	!	!	!	!	!LO:TX:t=P:problem=kreska pseudotaktowa	!	!LO:TX:t=P:global:problem=oddech/cezura na różnej wysokości	!
2C\	Al-	2C/	6	Al-	2c\	-le-	1.r	.	1A,<	-ia
*	*	*	*	*	*	*	*	*	*	*Xij
2D\	-le-	2D\	6 5	-le-	1Bn	-lu-	.	.	.	.
!LO:TX:t=P:problem=kreska pseudotaktowa	!	!LO:TX:t=P:problem=kreska pseudotaktowa	!	!	!	!	!	!	!LO:TX:t=P:problem=kreska pseudotaktowa	!
2E\	-lu-	2E\	#	-lu-	.	.	.	.	2G#X/	al-
=6-	=6-	=6-	=6-	=6-	=6-	=6-	=6-	=6-	=6-	=6-
!LO:TX:t=P:problem=kreska pseudotaktowa	!	!LO:TX:t=P:problem=kreska pseudotaktowa	!	!	!LO:TX:t=P:problem=kreska pseudotaktowa	!	!	!	!	!
1.AA	-ia	1.AA	.	-ia	1.A	-ia	4A/	al-	4A/	.
*	*Xij	*	*	*Xij	*	*Xij	*	*	*	*
.	.	.	.	.	.	.	4B/	.	4G#X/	.
.	.	.	.	.	.	.	4c/	.	4A/	.
.	.	.	.	.	.	.	4d/	.	4B/	.
!	!	!	!	!	!	!	!LO:TX:t=P:problem=kreska pseudotaktowa	!	!	!
.	.	.	.	.	.	.	2e\	.	4c\	.
!	!	!	!	!	!	!	!	!	!LO:TX:t=P:problem=kreska pseudotaktowa	!
.	.	.	.	.	.	.	.	.	4d\	.
=7-	=7-	=7-	=7-	=7-	=7-	=7-	=7-	=7-	=7-	=7-
2A\	al-	2A\	.	al-	2c\	al-	2a\	.	2e\	.
2E\	-le-	2E\	6 5	-le-	2Bn\	-le-	2g\	-le-	2e\	-le-
!LO:TX:t=P:problem=kreska pseudotaktowa	!	!LO:TX:t=P:problem=kreska pseudotaktowa	!	!	!LO:TX:t=P:problem=kreska pseudotaktowa	!	!LO:TX:t=P:problem=kreska pseudotaktowa	!	!LO:TX:t=P:problem=kreska pseudotaktowa	!
2F\	-lu-	2F\	.	-lu-	2A\	-lu-	2f\	-lu-	2c\	-lu-
=8-	=8-	=8-	=8-	=8-	=8-	=8-	=8-	=8-	=8-	=8-
!LO:LB:g=original	!	!	!	!	!LO:TX:t=P:global:problem=oddech/cezura na różnej wysokości	!	!	!	!LO:TX:t=P:problem=kreska pseudotaktowa	!
4C/	-ia	4C/	.	-ia	1.G,<	-ia	4e\	-ia	1.c	-ia
4BB/	.	4BB/	.	.	.	.	4d\	.	.	.
4C/	.	4C/	.	.	.	.	4e\	.	.	.
4D/	.	4D/	.	.	.	.	4f\	.	.	.
4E/	.	4E/	.	.	.	.	4g\	.	.	.
!LO:TX:t=P:problem=kreska pseudotaktowa	!	!LO:TX:t=P:problem=kreska pseudotaktowa	!	!	!	!	!LO:TX:t=P:problem=kreska pseudotaktowa	!	!	!
4C/	.	4C/	.	.	.	.	4e\	.	.	.
=9-	=9-	=9-	=9-	=9-	=9-	=9-	=9-	=9-	=9-	=9-
*	*	*	*	*	*	*ij	*	*	*	*ij
2F\	al-	2F\	.	al-	2A\	al-	2f\	al-	2c\	al-
2C/	-le-	2C/	6 5	-le-	2G/	-le-	2e\	-le-	2c\	-le-
!LO:TX:t=P:problem=kreska pseudotaktowa	!	!LO:TX:t=P:problem=kreska pseudotaktowa	!	!	!LO:TX:t=P:problem=kreska pseudotaktowa	!	!LO:TX:t=P:problem=kreska pseudotaktowa	!	!LO:TX:t=P:problem=kreska pseudotaktowa	!
2D\	-lu-	2D/	.	-lu-	2F/	-lu-	2d\	-lu-	2A\	-lu-
=10-	=10-	=10-	=10-	=10-	=10-	=10-	=10-	=10-	=10-	=10-
!	!	!	!	!	!LO:TX:t=P:problem=kreska pseudotaktowa	!	!	!	!LO:TX:t=P:problem=kreska pseudotaktowa	!
4AA/	-ia	4AA/	#	-ia	1.E	-i	4c#X/	-ia	1.A	-ia
*	*	*	*	*	*	*Xij	*	*	*	*Xij
4GG/	.	4GG/	.	.	.	.	4B/	.	.	.
4AA/	.	4AA/	.	.	.	.	4c#/	.	.	.
4BB/	.	4BB/	.	.	.	.	4d/	.	.	.
4C#X/	.	4C#X/	.	.	.	.	4e/	.	.	.
*	*	*custos:D	*	*	*	*	*	*	*	*
!	!	!LO:TX:t=P:problem=kreska pseudotaktowa	!	!	!	!	!	!	!	!
!LO:TX:t=P:problem=kreska pseudotaktowa	!	!	!	!	!	!	!LO:TX:t=P:problem=kreska pseudotaktowa	!	!	!
4AA/	.	4AA/	.	.	.	.	4c#X/	.	.	.
=11-	=11-	=11-	=11-	=11-	=11-	=11-	=11-	=11-	=11-	=11-
*	*ij	*	*	*ij	*	*	*	*ij	*	*
!	!	!LO:LB:g=original	!	!	!	!	!	!	!	!
2D\	al-	2D/	.	al-	2F/	al-	2d\	al-	2A\	al-
2GG/	-le-	2GG/	-	-le-	2G/	-le-	2d\	-le-	2B-X\	-le-
!	!	!LO:TX:t=P:problem=kreska pseudotaktowa	!	!	!LO:TX:t=P:problem=kreska pseudotaktowa	!	!LO:TX:t=P:problem=kreska pseudotaktowa	!	!LO:TX:t=P:problem=kreska pseudotaktowa	!
2AA/	-lu-	2AA/	#	-lu-	2E/	-lu-	2c#X\	-lu-	2A\	-lu-
=12-	=12-	=12-	=12-	=12-	=12-	=12-	=12-	=12-	=12-	=12-
1.D	-ia	1.D	.	-ia	1.D	-ia.	1.d	-ia	1.A	-ia.
*	*Xij	*	*	*Xij	*	*	*	*Xij	*	*
=13||-	=13||-	=13||-	=13||-	=13||-	=13||-	=13||-	=13||-	=13||-	=13||-	=13||-
*M2/1	*	*M2/1	*	*	*M2/1	*	*M2/1	*	*M2/1	*
*met(C|)	*	*met(C|)	*	*	*met(C|)	*	*met(C|)	*	*met(C|)	*
!	!	!	!	!	!	!	!LO:TX:t=P:problem=kreska pseudotaktowa	!	!LO:LB:g=original	!
!LO:LB:g=original	!	!	!	!	!LO:LB:g=original	!	!LO:LB:g=original	!	!	!
1AA	A-	1AA	.	A-	2r	.	1r	.	2.e\	A-
!	!	!	!	!	!LO:TX:t=P::problem=kreska pseudotaktowa&colon;między nutą a kropką	!	!	!	!	!
.	.	.	.	.	[<2e\	A-	.	.	.	.
!	!	!	!	!	!	!	!	!	!LO:TX:t=P:problem=kreska pseudotaktowa	!
.	.	.	.	.	.	.	.	.	4d\	.
*lig	*	*	*	*	*	*	*	*	*	*
!	!	!	!	!	!LO:N:xstem:cue	!	!	!	!	!
1Cny	-ve	(1Cny	6	-ve	4e]	.	2r	.	4c\	.
.	.	.	.	.	4d\	.	.	.	4Bny\	.
!	!	!	!	!	!	!	!LO:TX:t=P::problem=kreska pseudotaktowa&colon;między nutą a kropką	!	!	!
.	.	.	.	.	4c\	.	[<2a\	A-	1A\	-ve
!	!	!	!	!	!LO:TX:t=P:problem=kreska pseudotaktowa	!	!	!	!	!
.	.	.	.	.	4B\	.	.	.	.	.
=14-	=14-	=14-	=14-	=14-	=14-	=14-	=14-	=14-	=14-	=14-
!LO:TX:t=P:problem=kreska pseudotaktowa	!	!LO:TX:t=P:problem=kreska pseudotaktowa	!	!	!	!	!LO:N:xstem:cue	!	!	!
1D	.	1D)	.	.	1A	.	4a\]	.	.	.
.	.	.	.	.	.	.	4g\	.	.	.
.	.	.	.	.	.	.	4f\	.	[<2d\	A-
.	.	.	.	.	.	.	4e\	.	.	.
!	!	!	!	!	!	!	!	!	!LO:TX:t=P::problem=kreska pseudotaktowa&colon;między nutą a kropką	!
!	!	!	!	!	!	!	!LO:TX:t=P:problem=kreska pseudotaktowa	!	!	!
*Xlig	*	*	*	*	*	*	*	*	*	*
!	!	!	!	!	!	!	!LO:TX:t=P:global:problem=oddech/cezura na różnej wysokości	!	!LO:N:xstem:cue	!
1F	Ma-	1F	6	Ma-	2A,</	-ve	2d,<\	-ve	4d]	.
.	.	.	.	.	.	.	.	.	4A/	.
!	!	!	!	!	!LO:TX:t=P:problem=kreska pseudotaktowa	!	!	!	!	!
.	.	.	.	.	2A/	Ma-	2f\	Ma-	4d\	.
!	!	!	!	!	!	!	!	!	!LO:TX:t=P:problem=kreska pseudotaktowa	!
.	.	.	.	.	.	.	.	.	4c\	.
=15-	=15-	=15-	=15-	=15-	=15-	=15-	=15-	=15-	=15-	=15-
1G	-ri-	1G	.	-ri-	(4B\	-ri-	4d\	-ri-	1B	.
.	.	.	.	.	4A\	.	4cny\	.	.	.
.	.	.	.	.	4B\	.	4d\	.	.	.
!	!	!	!	!	!LO:TX:t=P:problem=kreska pseudotaktowa	!	!LO:TX:t=P:problem=kreska pseudotaktowa	!	!	!
.	.	.	.	.	4c\)	.	4e\	.	.	.
!LO:TX:t=P:problem=kreska pseudotaktowa	!	!LO:TX:t=P:problem=kreska pseudotaktowa	!	!	!	!	!	!	!	!
1D	-a	1D	56	-a	1d	.	4f\	.	2A\	-ve
.	.	.	.	.	.	.	4c\	.	.	.
!	!	!	!	!	!	!	!	!	!LO:TX:t=P:problem=kreska pseudotaktowa	!
.	.	.	.	.	.	.	1f\	.	2Bn\	Ma-
=16-	=16-	=16-	=16-	=16-	=16-	=16-	=16-	=16-	=16-	=16-
*lig	*	*lig	*	*	*	*	*	*	*	*
!	!	!LO:TX:a:t=c.	!	!	!	!	!	!	!	!
1C	gra-	1C	.	gra-	2G,</	-a	.	.	1c	-ri-
!	!	!	!	!	!	!	!LO:TX:t=P:problem=kreska pseudotaktowa	!	!	!
.	.	.	.	.	2.c\	gra-	2e\	.	.	.
1F	.	1F	.	.	.	.	2f,<\	-a	2c\	-a
.	.	.	.	.	4B\	-ti-	.	.	.	.
!	!	!	!	!	!LO:TX:t=P:problem=kreska pseudotaktowa	!	!	!	!	!
.	.	.	.	.	2A/	-a	2.c\	gra-	[<2c\	gra-
!	!	!	!	!	!	!	!	!	!LO:TX:t=P::problem=kreska pseudotaktowa&colon;między nutą a kropką	!
*Xlig	*	*Xlig	*	*	*	*	*	*	*	*
=17-	=17-	=17-	=17-	=17-	=17-	=17-	=17-	=17-	=17-	=17-
!LO:TX:t=P:problem=kreska pseudotaktowa	!	!LO:TX:t=P:problem=kreska pseudotaktowa	!	!	!	!	!	!	!LO:N:xstem:cue	!
1E	-ti-	1E	6	-ti-	(>1G	ple-	.	.	4c\]	.
.	.	.	.	.	.	.	4d\	-ti-	4c\	-ti-
!	!	!	!	!	!	!	!LO:TX:t=P:problem=kreska pseudotaktowa	!	!LO:TX:t=P:problem=kreska pseudotaktowa	!
.	.	.	.	.	.	.	2e\	-a	2c\	-a
*lig	*	*lig	*	*	*	*	*	*	*	*
1D	-a	1D	.	-a	1F)	.	2f\	ple-	2A\	ple-
!	!	!	!	!	!	!	!	!	!LO:TX:t=P:problem=kreska pseudotaktowa	!
.	.	.	.	.	.	.	2d\	.	2d\	.
=18-	=18-	=18-	=18-	=18-	=18-	=18-	=18-	=18-	=18-	=18-
!LO:TX:t=P:problem=kreska pseudotaktowa	!	!LO:TX:t=P:problem=kreska pseudotaktowa	!	!	!	!	!	!	!	!
1E	.	1E	.	.	0E	-na	2.g\	.	2B\	.
.	.	.	.	.	.	.	.	.	2e\	.
.	.	.	.	.	.	.	4f\	.	.	.
*Xlig	*	*Xlig	*	*	*	*	*	*	*	*
!	!	!	!	!	!	!	!	!	!LO:TX:t=P:problem=kreska pseudotaktowa	!
1C#X	ple-	1C#X	6	ple-	.	.	1e	.	0A	-na
=19-	=19-	=19-	=19-	=19-	=19-	=19-	=19-	=19-	=19-	=19-
!LO:TX:t=P:problem=kreska pseudotaktowa	!	!LO:TX:t=P:problem=kreska pseudotaktowa	!	!	!	!	!LO:TX:t=P:problem=kreska pseudotaktowa	!	!	!
!LO:TX:t=P:global:problem=oddech/cezura na różnej wysokości	!	!	!	!	!	!	!	!	!	!
1D,<	-na	1D	.	-na	2A,<\	.	1d	-na	.	.
!	!	!	!	!	!LO:TX:t=P::problem=kreska pseudotaktowa&colon;między nutą a kropką	!	!	!	!	!
.	.	.	.	.	[<2A\	Do-	.	.	.	.
*lig	*	*lig	*	*	*	*	*	*	*	*
!LO:LB:g=original	!	!	!	!	!LO:N:xstem:cue	!	!LO:TX:t=P:problem=kreska pseudotaktowa	!	!LO:TX:t=P:problem=kreska pseudotaktowa	!
1F	Do-	1F	.	Do-	4A]	.	1r	.	1r	.
.	.	.	.	.	4G/	.	.	.	.	.
.	.	.	.	.	4A/	.	.	.	.	.
!	!	!	!	!	!LO:TX:t=P:problem=kreska pseudotaktowa	!	!	!	!	!
.	.	.	.	.	4B/	.	.	.	.	.
=20-	=20-	=20-	=20-	=20-	=20-	=20-	=20-	=20-	=20-	=20-
1A	.	1A	.	.	2.c\	.	4e\	Do-	4c\	Do-
.	.	.	.	.	.	.	4d\	.	4B\	.
.	.	.	.	.	.	.	4e\	.	4c\	.
!	!	!	!	!	!	!	!	!	!LO:TX:t=P:problem=kreska pseudotaktowa	!
.	.	.	.	.	4c\	-mi-	4f\	.	4d\	.
!	!	!	!	!	!	!	!LO:TX:t=P:problem=kreska pseudotaktowa	!	!	!
*Xlig	*	*Xlig	*	*	*	*	*	*	*	*
!LO:TX:t=P:problem=kreska pseudotaktowa	!	!LO:TX:t=P:problem=kreska pseudotaktowa	!	!	!LO:TX:t=P:problem=kreska pseudotaktowa	!	!	!	!	!
1G	.	1G	.	.	1Bn	-n(us)	2.g\	.	2.e\	.
!	!	!	!	!	!	!	!	!	!LO:TX:t=P:problem=kreska pseudotaktowa	!
.	.	.	.	.	.	.	4f\	-mi-	4d\	-mi-
=21-	=21-	=21-	=21-	=21-	=21-	=21-	=21-	=21-	=21-	=21-
*	*	*	*	*	*	*ij	*	*	*	*
!	!	!	!	!	!	!	!LO:TX:t=P:problem=kreska pseudotaktowa	!	!LO:TX:t=P:problem=kreska pseudotaktowa	!
1A	.	1A	.	.	2.c\	Do-	1e	-n(us)	1c	-n(us)
.	.	.	.	.	4B\	-mi-	.	.	.	.
*	*	*	*	*	*	*	*	*ij	*	*ij
!	!	!	!	!	!LO:TX:t=P:problem=kreska pseudotaktowa	!	!	!	!	!
1F	-mi-	1F	65	-mi-	1A	-n(us)	2.f\	Do-	2.d\	Do-
*	*	*	*	*	*	*Xij	*	*	*	*
.	.	.	.	.	.	.	4e\	-mi-	4c\	-mi-
=22-	=22-	=22-	=22-	=22-	=22-	=22-	=22-	=22-	=22-	=22-
*	*	*	*	*	*	*	*	*	*custos:c	*
!	!	!	!	!	!	!	!	!	!LO:TX:t=P:problem=kreska pseudotaktowa	!
!LO:TX:t=P:problem=kreska pseudotaktowa	!	!LO:TX:t=P:problem=kreska pseudotaktowa	!	!	!	!	!	!	!	!
1G	-n(us)	1G	.	-n(us)	2.B\	Do-	2d,<\	-n(us)	1B	-n(us)
*	*	*	*	*	*	*	*	*Xij	*	*Xij
*	*	*	*	*	*	*	*custos:g	*	*	*
!	!	!	!	!	!	!	!LO:TX:t=P::problem=kreska pseudotaktowa&colon;między nutą a kropką	!	!	!
.	.	.	.	.	.	.	[<2g\	Te-	.	.
*	*	*	*	*	*custos:G	*	*	*	*	*
!	!	!	!	!	!LO:TX:t=P:problem=kreska pseudotaktowa	!	!	!	!	!
.	.	.	.	.	4A/	-mi-	.	.	.	.
*lig	*	*lig	*	*	*	*	*	*	*	*
!	!	!	!	!	!	!	!LO:LB:g=original	!	!	!
!	!	!	!	!	!LO:LB:g=original	!	!LO:N:xstem:cue	!	!LO:LB:g=original	!
1E	Te-	1E	.	Te-	2G/	-nus	4g]	.	(2.c\	Te-
.	.	.	.	.	.	.	4f\	.	.	.
.	.	.	.	.	2.c\	Te-	4e\	.	.	.
!	!	!	!	!	!	!	!LO:TX:t=P:problem=kreska pseudotaktowa	!	!	!
.	.	.	.	.	.	.	4d\	.	4B\)	.
=23-	=23-	=23-	=23-	=23-	=23-	=23-	=23-	=23-	=23-	=23-
1F	.	1F	.	.	.	.	2c/	.	0A	.
.	.	.	.	.	4B-X\	.	.	.	.	.
!	!	!	!	!	!	!	!LO:TX:t=P:problem=kreska pseudotaktowa	!	!	!
.	.	.	.	.	4A\	.	2c/	-cum	.	.
!	!	!	!	!	!LO:TX:t=P:problem=kreska pseudotaktowa	!	!	!	!	!
.	.	.	.	.	4G/	.	.	.	.	.
*Xlig	*	*Xlig	*	*	*	*	*	*	*	*
!LO:TX:t=P:problem=kreska pseudotaktowa	!	!LO:TX:t=P:problem=kreska pseudotaktowa	!	!	!LO:TX:t=P:problem=kreska pseudotaktowa	!	!LO:TX:t=P:problem=kreska pseudotaktowa	!	!	!
1D	-cum	1D	.	-cum	0F	-cum	1r	.	.	.
=24-	=24-	=24-	=24-	=24-	=24-	=24-	=24-	=24-	=24-	=24-
!	!	!	!	!	!	!	!	!	!LO:TX:t=P:problem=kreska pseudotaktowa	!
1F	be-	1F	.	be-	.	.	2r	.	1A	-cum
.	.	.	.	.	.	.	1f	be-	.	.
!	!	!	!	!	!	!	!	!	!LO:TX:t=P:problem=kreska pseudotaktowa	!
1G	-ne-	1G	.	-ne-	0r	.	.	.	1r	.
!	!	!	!	!	!	!	!LO:TX:t=P:problem=kreska pseudotaktowa	!	!	!
.	.	.	.	.	.	.	2e\	-ne-	.	.
=25-	=25-	=25-	=25-	=25-	=25-	=25-	=25-	=25-	=25-	=25-
1F	-di-	1F	.	-di-	.	.	1f	-di-	2r	.
.	.	.	.	.	.	.	.	.	1f	Be-
!LO:TX:t=P:problem=kreska pseudotaktowa	!	!LO:TX:t=P:problem=kreska pseudotaktowa	!	!	!LO:TX:t=P:problem=kreska pseudotaktowa	!	!	!	!	!
1G	-cta	1G	.	-cta	1r	.	(2d\	-cta	.	.
!	!	!	!	!	!	!	!LO:TX:t=P:problem=kreska pseudotaktowa	!	!LO:TX:t=P:problem=kreska pseudotaktowa	!
.	.	.	.	.	.	.	2g\)	.	2e\	-ne-
=26-	=26-	=26-	=26-	=26-	=26-	=26-	=26-	=26-	=26-	=26-
*lig	*	*lig	*	*	*	*	*	*	*	*
!LO:LB:g=original	!	!	!	!	!	!	!	!	!	!
1A	Tu	1A	.	Tu	2r	.	2c/	tu	1f	-di-
!	!	!	!	!	!	!	!LO:TX:t=P:problem=kreska pseudotaktowa	!	!	!
.	.	.	.	.	1f	be-	2c/	in	.	.
*	*	*custos:F	*	*	*	*	*	*	*	*
!	!	!LO:TX:t=P:problem=kreska pseudotaktowa	!	!	!	!	!	!	!	!
!LO:TX:t=P:problem=kreska pseudotaktowa	!	!	!	!	!	!	!	!	!	!
1G	.	1G	.	.	.	.	2d\	mu-	(2d\	-cta
!	!	!	!	!	!LO:TX:t=P:problem=kreska pseudotaktowa	!	!	!	!LO:TX:t=P:problem=kreska pseudotaktowa	!
.	.	.	.	.	2e\	-ne-	2e\	-li-	2g\)	.
*Xlig	*	*Xlig	*	*	*	*	*	*	*	*
=27-	=27-	=27-	=27-	=27-	=27-	=27-	=27-	=27-	=27-	=27-
!LO:TX:t=P:problem=kreska pseudotaktowa	!	!LO:TX:t=P:problem=kreska pseudotaktowa	!	!	!	!	!	!	!	!
!	!	!LO:LB:g=original	!	!	!	!	!	!	!	!
1F	in	1F	.	in	1f	-di-	4a\	-e-	4c\	Tu
.	.	.	.	.	.	.	4g\	.	4c\	in
.	.	.	.	.	.	.	4f\	.	2.d\	mu-
!	!	!	!	!	!	!	!LO:TX:t=P:problem=kreska pseudotaktowa	!	!	!
.	.	.	.	.	.	.	4e\	.	.	.
!	!	!	!	!	!LO:TX:t=P:problem=kreska pseudotaktowa	!	!	!	!	!
1G	mu-	1G	.	mu-	1d	-cta	2d\	.	.	.
.	.	.	.	.	.	.	.	.	4c\	-li-
!	!	!	!	!	!	!	!	!	!LO:TX:t=P::problem=kreska pseudotaktowa&colon;między nutą a kropką	!
.	.	.	.	.	.	.	2.g\	.	[<2B-X\	-e-
=28-	=28-	=28-	=28-	=28-	=28-	=28-	=28-	=28-	=28-	=28-
!	!	!LO:TX:t=P:problem=kreska pseudotaktowa	!	!	!	!	!	!	!LO:N:xstem:cue	!
1E	-li-	1E	.	-li-	2e,<\	Tu	.	.	4B-\]	.
.	.	.	.	.	.	.	4f\	.	4A\	.
!	!	!	!	!	!LO:TX:t=P:problem=kreska pseudotaktowa	!	!	!	!LO:TX:t=P:problem=kreska pseudotaktowa	!
.	.	.	.	.	2c\	in	4e\	.	2Gny/	.
!	!	!	!	!	!	!	!LO:TX:t=P:problem=kreska pseudotaktowa	!	!	!
.	.	.	.	.	.	.	4d\	.	.	.
1F	-e-	1F	.	-e-	2A\	mu-	2c\	.	4c\	.
.	.	.	.	.	.	.	.	.	4B-X\	.
!	!	!	!	!	!LO:TX:t=P:problem=kreska pseudotaktowa	!	!	!	!	!
.	.	.	.	.	2c\	-li-	2.f\	.	4A\	.
!	!	!	!	!	!	!	!	!	!LO:TX:t=P:problem=kreska pseudotaktowa	!
.	.	.	.	.	.	.	.	.	4G/	.
=29-	=29-	=29-	=29-	=29-	=29-	=29-	=29-	=29-	=29-	=29-
!	!	!LO:TX:t=P:problem=kreska pseudotaktowa	!	!	!	!	!	!	!	!
1D	.	1D	.	.	2d\	-e-	.	.	4F/	.
.	.	.	.	.	.	.	4e\	.	4D/	.
!	!	!	!	!	!	!	!LO:TX:t=P:problem=kreska pseudotaktowa	!	!	!
.	.	.	.	.	1A	.	2d\	.	1d	.
2.AA/	.	2.AA/	.	-ri-	.	.	2.e\	.	.	.
!	!	!	!	!	!LO:TX:t=P:problem=kreska pseudotaktowa	!	!	!	!LO:TX:t=P:problem=kreska pseudotaktowa	!
.	.	.	.	.	2A\	-ri-	.	.	2c#X\	-ri-
4AA/	-ri-	4AA/	.	-bus	.	.	4e\	-ri-	.	.
=30-	=30-	=30-	=30-	=30-	=30-	=30-	=30-	=30-	=30-	=30-
!LO:TX:t=P:problem=kreska pseudotaktowa	!	!LO:TX:t=P:problem=kreska pseudotaktowa	!	!	!LO:TX:t=P:problem=kreska pseudotaktowa	!	!LO:TX:t=P:problem=kreska pseudotaktowa	!	!LO:TX:t=P:problem=kreska pseudotaktowa	!
1D	-bus	1D	.	.	1A,<	-bus	1f	-bus:	1d,<	-bus
!	!	!LO:TX:t=P:problem=kreska pseudotaktowa	!	!	!	!	!LO:TX:t=P:problem=kreska pseudotaktowa	!	!	!
1r	.	1r	.	.	(1A	et	0r	.	(2.e\	et
!	!	!	!	!	!	!	!	!	!LO:TX:t=P:problem=kreska pseudotaktowa	!
.	.	.	.	.	.	.	.	.	4d\)	.
=31-	=31-	=31-	=31-	=31-	=31-	=31-	=31-	=31-	=31-	=31-
!	!	!	!	!	!LO:TX:t=P:problem=kreska pseudotaktowa	!	!	!	!	!
2.A\	et	2.A\	.	et	1c)	.	.	.	(2.cny\	be-
!LO:TX:t=P:problem=kreska pseudotaktowa	!	!LO:TX:t=P:problem=kreska pseudotaktowa	!	!	!	!	!	!	!LO:TX:t=P:problem=kreska pseudotaktowa	!
4G\	be-	4G\	.	be-	.	.	.	.	4Bn\)	.
4F\	.	4F\	.	.	(1d	be-	2.a\	et	2A\	.
4G\	.	4G\	.	.	.	.	.	.	.	.
*	*	*	*	*	*	*	*	*	*custos:d	*
!	!	!	!	!	!	!	!	!	!LO:TX:t=P:problem=kreska pseudotaktowa	!
4F\	.	4F\	.	.	.	.	.	.	2A\	-ne-
!	!	!LO:TX:t=P:problem=kreska pseudotaktowa	!	!	!	!	!	!	!	!
4E\	.	4E\	.	.	.	.	4g\	be-	.	.
=32-	=32-	=32-	=32-	=32-	=32-	=32-	=32-	=32-	=32-	=32-
!	!	!	!	!	!LO:TX:t=P:problem=kreska pseudotaktowa	!	!	!	!LO:LB:g=original	!
2D\	.	2D/	.	.	1A)	.	(4f\	-ne-	1d	-di-
.	.	.	.	.	.	.	4e\)	.	.	.
!	!	!LO:TX:t=P:problem=kreska pseudotaktowa	!	!	!	!	!	!	!	!
2D\	-ne-	2D/	.	-ne-	.	.	(4f\	.	.	.
!	!	!	!	!	!	!	!LO:TX:t=P:problem=kreska pseudotaktowa	!	!	!
.	.	.	.	.	.	.	4d\)	.	.	.
!	!	!	!	!	!	!	!LO:LB:g=original	!	!	!
4AA/	-di-	4AA/	.	-di-	(1A	-ne-	4e\	-di-	1c	.
4BB/	.	4BB/	.	.	.	.	4d\	.	.	.
4Cny/	.	4Cny/	.	.	.	.	4c/	.	.	.
!	!	!LO:TX:t=P:problem=kreska pseudotaktowa	!	!	!	!	!	!	!	!
4D/	.	4D/	.	.	.	.	4A/	.	.	.
=33-	=33-	=33-	=33-	=33-	=33-	=33-	=33-	=33-	=33-	=33-
!	!	!	!	!	!LO:TX:t=P:problem=kreska pseudotaktowa	!	!	!	!LO:TX:t=P:problem=kreska pseudotaktowa	!
1E	-ct(us)	1E	.	-ctus	1G#X)	.	1e	.	1Bn	.
!LO:TX:t=P:problem=kreska pseudotaktowa	!	!LO:TX:t=P:problem=kreska pseudotaktowa	!	!	!	!	!LO:TX:t=P:problem=kreska pseudotaktowa	!	!	!
1AA	.	1AA	.	.	1A	-di-	1e	-ctus	2A,<\	-ctus
.	.	.	.	.	.	.	.	.	2A\	Fru-
=34-	=34-	=34-	=34-	=34-	=34-	=34-	=34-	=34-	=34-	=34-
*	*	*	*	*	*custos:A	*	*	*	*	*
!	!	!	!	!	!LO:TX:t=P:problem=kreska pseudotaktowa	!	!	!	!	!
!LO:LB:g=original	!	!	!	!	!	!	!	!	!	!
2r	.	2r	.	.	1A,<	-ctus	2r	.	2c\	-ct(us)
!	!	!	!	!	!	!	!LO:TX:t=P:problem=kreska pseudotaktowa	!	!LO:TX:t=P::problem=kreska pseudotaktowa&colon;między nutą a kropką	!
1D	Fru-	1D	.	Fru-	.	.	2d\	Fru-	[<2F/	Ven-
!	!	!	!	!	!LO:LB:g=original	!	!	!	!LO:N:xstem:cue	!
.	.	.	.	.	1A	Fru-	2f\	-ct(us)	4F]	.
.	.	.	.	.	.	.	.	.	4G/	.
!LO:TX:t=P:problem=kreska pseudotaktowa	!	!LO:TX:t=P:problem=kreska pseudotaktowa	!	!	!	!	!	!	!	!
2F\	-ct(us)	2F\	.	-ct(us)	.	.	4c\	Ven-	4A/	.
!	!	!	!	!	!	!	!LO:TX:t=P:problem=kreska pseudotaktowa	!	!LO:TX:t=P:problem=kreska pseudotaktowa	!
.	.	.	.	.	.	.	4d\	.	4B-X/	.
=35-	=35-	=35-	=35-	=35-	=35-	=35-	=35-	=35-	=35-	=35-
4C\	Ven-	4C/	.	Ven-	1c,<	-ctus	4e\	.	2c\	.
4D\	.	4D/	.	.	.	.	4f\	.	.	.
4E\	.	4E/	.	.	.	.	1g	.	2c\	-tris
!	!	!LO:TX:t=P:problem=kreska pseudotaktowa	!	!	!	!	!	!	!	!
4F\	.	4F/	.	.	.	.	.	.	.	.
2G\	.	2G\	.	-tris	1Gny	Ven-	.	.	1B-X	Tu-
!LO:TX:t=P:problem=kreska pseudotaktowa	!	!LO:TX:t=P:problem=kreska pseudotaktowa	!	!	!	!	!	!	!	!
2G\	-tris	2G\	.	.	.	.	4d\	.	.	.
!	!	!	!	!	!	!	!LO:TX:t=P:problem=kreska pseudotaktowa	!	!	!
.	.	.	.	.	.	.	4e\	.	.	.
=36-	=36-	=36-	=36-	=36-	=36-	=36-	=36-	=36-	=36-	=36-
*lig	*	*	*	*	*	*	*	*	*	*
!	!	!	!	!	!	!	!	!	!LO:TX:t=P:problem=kreska pseudotaktowa	!
1D	Tu-	(1D	.	Tu-	1F,<	-tris	4f\	-tris	1A	-i
.	.	.	.	.	.	.	4d\	.	.	.
.	.	.	.	.	.	.	1d	Tu-	.	.
*	*	*	*	*	*lig	*	*	*	*	*
1AA	.	1AA)	.	.	1E	Tu-	.	.	2r	.
!	!	!	!	!	!	!	!	!	!LO:TX:t=P:problem=kreska pseudotaktowa	!
.	.	.	.	.	.	.	2c#X/	.	2A\	al-
!	!	!	!	!	!	!	!LO:TX:t=P:problem=kreska pseudotaktowa	!	!	!
*Xlig	*	*	*	*	*	*	*	*	*	*
=37-	=37-	=37-	=37-	=37-	=37-	=37-	=37-	=37-	=37-	=37-
!LO:TX:t=P:problem=kreska pseudotaktowa	!	!LO:TX:t=P:problem=kreska pseudotaktowa	!	!	!	!	!LO:TX:t=P:problem=kreska pseudotaktowa	!	!	!
1D	-i	1D	.	-i.	1F	.	1d	-i.	2A\	-le-
!	!	!	!	!	!	!	!	!	!LO:TX:t=P:problem=kreska pseudotaktowa	!
.	.	.	.	.	.	.	.	.	2A\	-lu-
*	*	*	*	*	*Xlig	*	*	*	*	*
*	*	*custos:AA	*	*	*	*	*	*	*	*
!	!	!LO:TX:t=P:problem=kreska pseudotaktowa	!	!	!	!	!	!	!	!
!LO:TX:t=P:problem=kreska pseudotaktowa	!	!	!	!	!LO:TX:t=P:problem=kreska pseudotaktowa	!	!LO:TX:t=P:problem=kreska pseudotaktowa	!	!	!
1r	.	1r	.	.	1D,<	-i	1r	.	4d\	-ia
.	.	.	.	.	.	.	.	.	4e\	.
.	.	.	.	.	.	.	.	.	4f\	.
!	!	!	!	!	!	!	!	!	!LO:TX:t=P:problem=kreska pseudotaktowa	!
.	.	.	.	.	.	.	.	.	4d\	.
=38-	=38-	=38-	=38-	=38-	=38-	=38-	=38-	=38-	=38-	=38-
!	!	!LO:TX:t=P:problem=kreska pseudotaktowa	!	!	!	!	!	!	!	!
!	!	!LO:LB:g=original	!	!	!	!	!	!	!	!
1A	Al-	1AA	.	al-	1C	al-	1cny	al-	2e\	.
.	.	.	.	.	.	.	.	.	2.e\	al-
*	*	*	*	*	*lig	*	*	*	*	*
2A\	-le-	2AA/	.	-le-	1E	-le-	2c/	-le-	.	.
.	.	.	.	.	.	.	.	.	4f\	.
!	!	!LO:TX:t=P:problem=kreska pseudotaktowa	!	!	!	!	!LO:TX:t=P:problem=kreska pseudotaktowa	!	!	!
2AA/	-lu-	2AA/	.	-lu-	.	.	2c/	-lu-	4g\	.
!	!	!	!	!	!	!	!	!	!LO:TX:t=P:problem=kreska pseudotaktowa	!
.	.	.	.	.	.	.	.	.	4e\	-le
=39-	=39-	=39-	=39-	=39-	=39-	=39-	=39-	=39-	=39-	=39-
4D\	-ia	4D\	.	-ia	1D	.	4f\	-ia	1f	-lu-
4E\	.	4E\	.	.	.	.	4g\	.	.	.
4F\	.	4F\	.	.	.	.	4a\	.	.	.
!LO:TX:t=P:problem=kreska pseudotaktowa	!	!	!	!	!	!	!LO:TX:t=P:problem=kreska pseudotaktowa	!	!	!
4D\	.	4D\	.	.	.	.	4f\	.	.	.
!	!	!LO:TX:t=P:problem=kreska pseudotaktowa	!	!	!	!	!	!	!	!
*	*	*	*	*	*Xlig	*	*	*	*	*
!	!	!	!	!	!	!	!	!	!LO:TX:t=P:problem=kreska pseudotaktowa	!
4E\	.	4E\	.	.	1G	-lu-	4g\	.	1e	-ia
4F\	.	4F\	.	.	.	.	4a\	.	.	.
4G\	.	4G\	.	.	.	.	4b-X\	.	.	.
!LO:TX:t=P:problem=kreska pseudotaktowa	!	!LO:TX:t=P:problem=kreska pseudotaktowa	!	!	!	!	!	!	!	!
4E\	.	4E\	.	.	.	.	4g\	.	.	.
=40-	=40-	=40-	=40-	=40-	=40-	=40-	=40-	=40-	=40-	=40-
!	!	!	!	!	!LO:TX:t=P:problem=kreska pseudotaktowa	!	!	!	!	!
4F\	.	4F\	.	.	1A	-ia	2a\	.	2r	.
4FF/	.	4FF/	.	al-	.	.	.	.	.	.
*	*	*	*	*	*	*	*	*	*	*ij
!	!	!	!	!	!	!	!LO:TX:t=P:problem=kreska pseudotaktowa	!	!LO:TX:t=P:problem=kreska pseudotaktowa	!
1F	.	1F	.	-le-	.	.	2c/	al-	2A\	al-
.	.	.	.	.	1G	al-	2d\	-le-	2B-X\	-le-
!	!	!LO:TX:t=P:problem=kreska pseudotaktowa	!	!	!	!	!LO:TX:t=P:problem=kreska pseudotaktowa	!	!LO:TX:t=P:problem=kreska pseudotaktowa	!
2E\	.	2E\	.	-lu-	.	.	2e\	-lu-	2c\	-lu-
=41-	=41-	=41-	=41-	=41-	=41-	=41-	=41-	=41-	=41-	=41-
!LO:LB:g=original	!	!LO:TX:t=P:global:problem=oddech/cezura na różnej wysokości	!	!	!	!	!	!	!	!
2F,<\	.	2F,<\	.	-ia	(1A	-le-	2c,<\	-ia	2F,</	-ia
*	*	*	*	*	*	*	*	*	*	*Xij
*	*	*	*	*	*	*	*	*	*custos:d	*
!	!	!	!	!	!	!	!	!	!LO:TX:t=P:problem=kreska pseudotaktowa	!
!	!	!	!	!	!	!	!LO:TX:t=P:problem=kreska pseudotaktowa	!	!	!
1F	al-	1F	32	al-	.	.	2f\	al-	2c\	al-
!	!	!	!	!	!	!	!LO:LB:g=original	!	!LO:LB:g=original	!
.	.	.	.	.	1G)	.	2g\	-le-	2d\	-le-
!LO:TX:t=P:problem=kreska pseudotaktowa	!	!LO:TX:t=P:problem=kreska pseudotaktowa	!	!	!	!	!LO:TX:t=P:problem=kreska pseudotaktowa	!	!LO:TX:t=P:problem=kreska pseudotaktowa	!
2E\	-le-	2E\	6	.	.	.	2g\	-lu-	2e\	-lu-
=42-	=42-	=42-	=42-	=42-	=42-	=42-	=42-	=42-	=42-	=42-
1D	-lu-	1D	.	-le-	1F	-lu-	4a\	-ia	4f\	-ia
.	.	.	.	.	.	.	4g\	.	4A/	.
.	.	.	.	.	.	.	4f\	.	1d	.
!	!	!	!	!	!	!	!LO:TX:t=P:problem=kreska pseudotaktowa	!	!	!
.	.	.	.	.	.	.	4d\	.	.	.
!LO:TX:t=P:problem=kreska pseudotaktowa	!	!LO:TX:t=P:problem=kreska pseudotaktowa	!	!	!	!	!	!	!	!
1AA	-ia	1AA	.	-lu-	1E	.	1e	.	.	.
!	!	!	!	!	!	!	!	!	!LO:TX:t=P:problem=kreska pseudotaktowa	!
.	.	.	.	.	.	.	.	.	2c#X\	.
=43-	=43-	=43-	=43-	=43-	=43-	=43-	=43-	=43-	=43-	=43-
!	!	!	!	!	!LO:TX:a:t=4	!	!	!	!	!
2D\	.	2D,</	.	-ia	00D;	-ia.	2f#X,<\	.	2d,<\	.
*	*ij	*	*	*ij	*	*	*	*	*	*
1G	al-	1GG	-	al-	.	.	1d	al-	1B-X	al-
!LO:TX:t=P:problem=kreska pseudotaktowa	!	!LO:TX:t=P:problem=kreska pseudotaktowa	!	!	!	!	!LO:TX:t=P:problem=kreska pseudotaktowa	!	!LO:TX:t=P:problem=kreska pseudotaktowa	!
2D\	-le-	2D/	.	-le-	.	.	2d\	-le-	2A/	-le-
=44-	=44-	=44-	=44-	=44-	=44-	=44-	=44-	=44-	=44-	=44-
1GG	-lu-	1GG	-	-lu-	.	.	1B-X	-lu-	1G	-lu-
!LO:N:vis=0	!	!LO:N:vis=0	!	!	!	!	!LO:N:vis=0	!	!LO:N:vis=0	!
1D;	-ia	1D;>	.	-ia	.	.	1d;	-ia	1F#X;	-ia.
*	*Xij	*	*	*Xij	*	*	*	*	*	*
=45||-	=45||-	=45||-	=45||-	=45||-	=45||-	=45||-	=45||-	=45||-	=45||-	=45||-
*M2/1	*	*M2/1	*	*	*M2/1	*	*M2/1	*	*M2/1	*
*met(C|)	*	*met(C|)	*	*	*met(C|)	*	*met(C|)	*	*met(C|)	*
2D\	Vir-	2D/	.	Vir-	1D	Vir-	2fny\	Vir-	2A\	Vir-
!	!	!LO:TX:t=P:problem=kreska pseudotaktowa	!	!	!	!	!LO:TX:t=P:problem=kreska pseudotaktowa	!	!LO:TX:t=P:problem=kreska pseudotaktowa	!
2D\	-ga	2D/	.	-ga	.	.	2f\	-ga	2A\	-ga
!	!	!	!	!	!LO:TX:t=P:problem=kreska pseudotaktowa	!	!	!	!	!
4AA/	Jeſ-	4AA/	.	Jeſ-	1A	-ga	1e	Jeſ-	1cny	Jeſ-
4BB/	.	4BB/	.	.	.	.	.	.	.	.
4C/	.	4C/	.	.	.	.	.	.	.	.
!	!	!LO:TX:t=P:problem=kreska pseudotaktowa	!	!	!	!	!	!	!	!
4D/	.	4D/	.	.	.	.	.	.	.	.
=46-	=46-	=46-	=46-	=46-	=46-	=46-	=46-	=46-	=46-	=46-
2E\	.	2E\	.	.	1E	Jeſ-	2e\	-se	2Bn\	-se
!	!	!	!	!	!	!	!LO:TX:t=P::problem=kreska pseudotaktowa&colon;między nutą a kropką	!	!LO:TX:t=P::problem=kreska pseudotaktowa&colon;między nutą a kropką	!
!LO:TX:t=P:problem=kreska pseudotaktowa	!	!LO:TX:t=P:problem=kreska pseudotaktowa	!	!	!	!	!	!	!	!
2E\	-se	2E\	.	-se	.	.	[<2Bn/	flo-	[<2G/	flo-
!LO:LB:g=original	!	!LO:LB:g=original	!	!	!	!	!LO:N:xstem:cue	!	!LO:N:xstem:cue	!
2.BB/	flo-	2.BB/	6	flo-	1G,<	-se	4B]	.	4G]	.
.	.	.	.	.	.	.	4c\	.	4A/	.
!	!	!	!	!	!	!	!	!	!LO:TX:t=P:problem=kreska pseudotaktowa	!
.	.	.	.	.	.	.	4d\	.	2B\	.
!	!	!LO:TX:t=P:problem=kreska pseudotaktowa	!	!	!	!	!LO:TX:t=P:problem=kreska pseudotaktowa	!	!	!
4C/	.	4C/	.	.	.	.	4e\	.	.	.
=47-	=47-	=47-	=47-	=47-	=47-	=47-	=47-	=47-	=47-	=47-
!LO:TX:t=P:problem=kreska pseudotaktowa	!	!LO:TX:t=P:problem=kreska pseudotaktowa	!	!	!	!	!	!	!	!
1D	.	1D	.	.	1F	flo-	2f\	.	2.A\	.
.	.	.	.	.	.	.	1d	.	.	.
!	!	!	!	!	!	!	!	!	!LO:TX:t=P:problem=kreska pseudotaktowa	!
.	.	.	.	.	.	.	.	.	4A\	-ru-
!	!	!	!	!	!	!	!	!	!LO:TX:t=P:problem=kreska pseudotaktowa	!
2A\	.	2.AA/	.	.	2.E/	.	.	.	1A	-it
!	!	!	!	!	!	!	!LO:TX:t=P:problem=kreska pseudotaktowa	!	!	!
2AA/	-ru-	.	.	.	.	.	2c#X\	-ru-	.	.
.	.	4AA/	.	-ru-	4E/	-ru-	.	.	.	.
=48-	=48-	=48-	=48-	=48-	=48-	=48-	=48-	=48-	=48-	=48-
*	*	*	*	*	*custos:A	*	*	*	*	*
!	!	!	!	!	!LO:TX:t=P:problem=kreska pseudotaktowa	!	!	!	!	!
!LO:TX:t=P:problem=kreska pseudotaktowa	!	!LO:TX:t=P:problem=kreska pseudotaktowa	!	!	!	!	!LO:TX:t=P:problem=kreska pseudotaktowa	!	!	!
1D	-it	1D	.	-it	1D	-it	1d	-it	2r	.
.	.	.	.	.	.	.	.	.	2.A\	Vir-
!	!	!	!	!	!LO:LB:g=original	!	!LO:TX:t=P:problem=kreska pseudotaktowa	!	!	!
2r	.	2r	.	.	1A	Vir-	1r	.	.	.
.	.	.	.	.	.	.	.	.	4B\	-go
!	!	!	!	!	!	!	!	!	!LO:TX:t=P:problem=kreska pseudotaktowa	!
1A\	Vir-	1A\	.	Vir-	.	.	.	.	2c\	De-
=49-	=49-	=49-	=49-	=49-	=49-	=49-	=49-	=49-	=49-	=49-
!	!	!	!	!	!LO:TX:t=P:problem=kreska pseudotaktowa	!	!	!	!	!
.	.	.	.	.	1Bn	-go	2r	.	2B,<\	-um
*	*	*	*	*	*	*	*	*	*custos:A	*
!	!	!	!	!	!	!	!	!	!LO:TX:t=P:problem=kreska pseudotaktowa	!
!LO:TX:t=P:problem=kreska pseudotaktowa	!	!LO:TX:t=P:problem=kreska pseudotaktowa	!	!	!	!	!	!	!	!
2G#X\	-go	2G#X\	.	-go	.	.	2.e\	Vir-	2B\	et
!	!	!	!	!	!	!	!	!	!LO:LB:g=original	!
4A\	De-	4A\	.	De-	2c\	De-	.	.	2.A\	Ho-
4AA/	-um	4AA/	.	-um	.	.	4d\	-go	.	.
4C,</	.	4C/	.	.	4c\	-um	4cny/	De-	.	.
!	!	!LO:TX:t=P:problem=kreska pseudotaktowa	!	!	!	!	!LO:TX:t=P:problem=kreska pseudotaktowa	!	!LO:TX:t=P:problem=kreska pseudotaktowa	!
4D/	et	4D/	.	et	4c\	et	4A/	-um	4A\	-mi-
=50-	=50-	=50-	=50-	=50-	=50-	=50-	=50-	=50-	=50-	=50-
!	!	!	!	!	!	!	!LO:LB:g=original	!	!	!
2E\	H(o-	2E\	.	.	2.Bn\	ho-	2e\	et	2A/	-nem
!	!	!	!	!	!	!	!	!	!LO:TX:t=P:problem=kreska pseudotaktowa	!
4E\	-mi)-	4E\	.	Ho-	.	.	1e	Ho-	2G#X/	ge-
!LO:TX:t=P:problem=kreska pseudotaktowa	!	!LO:TX:t=P:problem=kreska pseudotaktowa	!	!	!LO:TX:t=P:problem=kreska pseudotaktowa	!	!	!	!	!
4E\	-nem	4E\	.	-mi-	4B\	-mi-	.	.	.	.
!LO:TX:t=P:problem=kreska pseudotaktowa	!	!	!	!	!	!	!	!	!	!
1F	ge-	1F	.	-nem	2A\	-nem	.	.	2A\	.
.	.	.	.	.	1A\	ge-	4d\	-mi-	2.d\	.
!	!	!	!	!	!	!	!LO:TX:t=P:problem=kreska pseudotaktowa	!	!	!
.	.	.	.	.	.	.	4d\	-nem	.	.
=51-	=51-	=51-	=51-	=51-	=51-	=51-	=51-	=51-	=51-	=51-
2.E\	.	2.E\	.	ge-	.	.	2.e\	ge-	.	.
.	.	.	.	.	.	.	.	.	4c\	.
!	!	!	!	!	!LO:TX:t=P:problem=kreska pseudotaktowa	!	!	!	!	!
.	.	.	.	.	2G#X/	-nu-	.	.	4B\	.
!	!	!LO:TX:t=P:problem=kreska pseudotaktowa	!	!	!	!	!	!	!LO:TX:t=P:problem=kreska pseudotaktowa	!
4E\	-nu-	4E\	.	-nu-	.	.	4e\	-nu-	4B\	-nu-
!LO:TX:t=P:problem=kreska pseudotaktowa	!	!LO:TX:t=P:problem=kreska pseudotaktowa	!	!	!	!	!LO:TX:t=P:problem=kreska pseudotaktowa	!	!LO:TX:t=P:problem=kreska pseudotaktowa	!
1AA	-it	1AA	.	-it	1A,<	-it	1e	-it	1c	-it
=52-	=52-	=52-	=52-	=52-	=52-	=52-	=52-	=52-	=52-	=52-
!LO:TX:t=P:problem=kreska pseudotaktowa	!	!LO:TX:t=P:problem=kreska pseudotaktowa	!	!	!	!	!LO:TX:t=P:problem=kreska pseudotaktowa	!	!	!
1r	.	1r	.	.	1d	pa-	1r	.	2r	.
.	.	.	.	.	.	.	.	.	1d	pa-
!	!	!	!	!	!LO:TX:t=P:problem=kreska pseudotaktowa	!	!	!	!	!
1Gny	pa-	1Gny	.	pa-	1B	-cem	2r	.	.	.
!	!	!	!	!	!	!	!	!	!LO:TX:t=P:problem=kreska pseudotaktowa	!
.	.	.	.	.	.	.	1g\	pa-	2B\	-cem
=53-	=53-	=53-	=53-	=53-	=53-	=53-	=53-	=53-	=53-	=53-
!LO:TX:t=P:problem=kreska pseudotaktowa	!	!LO:TX:t=P:problem=kreska pseudotaktowa	!	!	!	!	!	!	!	!
1E	-cem	1E	.	-cem	1c	De-	.	.	4e\	De-
.	.	.	.	.	.	.	.	.	4d\	.
!	!	!	!	!	!	!	!LO:TX:t=P:problem=kreska pseudotaktowa	!	!	!
.	.	.	.	.	.	.	2e\	-cem	2.c\	.
!LO:LB:g=original	!	!	!	!	!LO:TX:t=P:problem=kreska pseudotaktowa	!	!	!	!	!
1F	DE-	1F	.	De-	1A	-us	4c/	De-	.	.
.	.	.	.	.	.	.	4c/	-us	4B\	.
.	.	.	.	.	.	.	1f\	red-	4A\	.
!	!	!	!	!	!	!	!	!	!LO:TX:t=P:problem=kreska pseudotaktowa	!
.	.	.	.	.	.	.	.	.	4B\	.
=54-	=54-	=54-	=54-	=54-	=54-	=54-	=54-	=54-	=54-	=54-
!LO:TX:t=P:problem=kreska pseudotaktowa	!	!LO:TX:t=P:problem=kreska pseudotaktowa	!	!	!	!	!	!	!	!
1C	-(us)	1C	.	-us	1Gny	red-	.	.	4c\	.
.	.	.	.	.	.	.	.	.	4Gny/	-us
.	.	.	.	.	.	.	1e	.	1c	red-
2.D\	red-	2.D/	.	red-	1F	-[di]-	.	.	.	.
!	!	!	!	!	!	!	!LO:TX:t=P::problem=kreska pseudotaktowa&colon;między nutą a kropką	!	!	!
!	!	!	!	!	!	!	!	!	!LO:TX:t=P:problem=kreska pseudotaktowa	!
.	.	.	.	.	.	.	[<2d\	.	2B\	.
4D\	-di-	4D/	.	-di-	.	.	.	.	.	.
=55-	=55-	=55-	=55-	=55-	=55-	=55-	=55-	=55-	=55-	=55-
!LO:TX:t=P:problem=kreska pseudotaktowa	!	!LO:TX:t=P:problem=kreska pseudotaktowa	!	!	!LO:TX:t=P:problem=kreska pseudotaktowa	!	!LO:N:xstem:cue	!	!	!
1AA	-dit	1AA	.	-dit	1E,<	-dit	4d\]	.	2.A/	.
.	.	.	.	.	.	.	4d\	-di-	.	.
!	!	!	!	!	!	!	!LO:TX:t=P:problem=kreska pseudotaktowa	!	!	!
.	.	.	.	.	.	.	2c#X\	-dit	.	.
!	!	!	!	!	!	!	!	!	!LO:TX:t=P:problem=kreska pseudotaktowa	!
.	.	.	.	.	.	.	.	.	4A/	-di-
!	!	!LO:TX:t=P:problem=kreska pseudotaktowa	!	!	!	!	!	!	!	!
1r	.	1r	.	.	1D	in	2d\	in	2A/	-dit
!	!	!	!	!	!	!	!	!	!LO:TX:t=P:problem=kreska pseudotaktowa	!
.	.	.	.	.	.	.	1a\	se	2r	.
=56-	=56-	=56-	=56-	=56-	=56-	=56-	=56-	=56-	=56-	=56-
!	!	!	!	!	!LO:TX:t=P:problem=kreska pseudotaktowa	!	!	!	!	!
2r	.	2r	.	.	1A	se	.	.	1A	in
!	!	!	!	!	!	!	!LO:TX:t=P::problem=kreska pseudotaktowa&colon;między nutą a kropką	!	!	!
1A	in	1A	.	in	.	.	[<2e\	re-	.	.
!	!	!	!	!	!	!	!LO:N:xstem:cue	!	!	!
.	.	.	.	.	1E	re-	4e]	.	2e\	se
.	.	.	.	.	.	.	4f\	-con-	.	.
*	*	*custos:BB	*	*	*	*	*	*	*	*
!	!	!LO:TX:t=P:problem=kreska pseudotaktowa	!	!	!	!	!	!	!	!
!LO:TX:t=P:problem=kreska pseudotaktowa	!	!	!	!	!	!	!	!	!	!
2E\	se	2E\	.	se	.	.	1g\	.	2.B\	re-
=57-	=57-	=57-	=57-	=57-	=57-	=57-	=57-	=57-	=57-	=57-
!	!	!LO:LB:g=original	!	!	!	!	!	!	!	!
2.BB/	re-	2.BB/	.	re-	1G	-con-	.	.	.	.
.	.	.	.	.	.	.	.	.	4c\	-con-
!	!	!	!	!	!	!	!	!	!LO:TX:t=P::problem=kreska pseudotaktowa&colon;między nutą a kropką	!
.	.	.	.	.	.	.	4d\	.	[<2d\	-ci-
!	!	!LO:TX:t=P:problem=kreska pseudotaktowa	!	!	!	!	!LO:TX:t=P:problem=kreska pseudotaktowa	!	!	!
4C/	.	4C/	.	-con-	.	.	4e\	.	.	.
!	!	!LO:TX:t=P:problem=kreska pseudotaktowa	!	!	!	!	!	!	!LO:N:xstem:cue	!
1D	-con-	1D	.	-ci-	1F	-ci-	4f\	.	4d]	.
.	.	.	.	.	.	.	4e\	.	4A/	.
.	.	.	.	.	.	.	4f\	.	1d\	.
!	!	!	!	!	!	!	!LO:TX:t=P:problem=kreska pseudotaktowa	!	!	!
.	.	.	.	.	.	.	4g\	.	.	.
=58-	=58-	=58-	=58-	=58-	=58-	=58-	=58-	=58-	=58-	=58-
2A\	-ci-	2AA/	.	.	1E	-li-	2.a\	.	.	.
*	*	*	*	*	*	*	*	*	*custos:d	*
!	!	!	!	!	!	!	!	!	!LO:TX:t=P:problem=kreska pseudotaktowa	!
2AA/	-li-	2AA/	.	-li-	.	.	.	.	2c#X\	-li-
!	!	!	!	!	!	!	!LO:TX:t=P:problem=kreska pseudotaktowa	!	!	!
.	.	.	.	.	.	.	4g\	.	.	.
!LO:TX:t=P:problem=kreska pseudotaktowa	!	!LO:TX:t=P:problem=kreska pseudotaktowa	!	!	!LO:TX:t=P:problem=kreska pseudotaktowa	!	!	!	!LO:LB:g=original	!
1D	-ans	1D	.	-ans	1D	-ans	1f	.	2d\	-ans
.	.	.	.	.	.	.	.	.	1A\	i-
=59-	=59-	=59-	=59-	=59-	=59-	=59-	=59-	=59-	=59-	=59-
!	!	!LO:TX:t=P:problem=kreska pseudotaktowa	!	!	!	!	!	!	!	!
1AA	i-	1AA	.	i-	1C	i-	2.e\	-ci-	.	.
!	!	!	!	!	!	!	!	!	!LO:TX:t=P:problem=kreska pseudotaktowa	!
.	.	.	.	.	.	.	.	.	2A\	-ma
*	*	*	*	*	*	*	*custos:d	*	*	*
!	!	!	!	!	!	!	!LO:TX:t=P:problem=kreska pseudotaktowa	!	!	!
.	.	.	.	.	.	.	4e\	-li-	.	.
*	*	*	*	*	*custos:E	*	*	*	*	*
!	!	!	!	!	!LO:TX:t=P:problem=kreska pseudotaktowa	!	!	!	!	!
!	!	!	!	!	!	!	!LO:LB:g=original	!	!	!
2D\	-ma	2D,<\	.	-ma	1D	-ma	2d,<\	-ans	1A	sum-
!	!	!	!	!	!	!	!LO:TX:t=P:problem=kreska pseudotaktowa	!	!	!
1D\	sum-	1D\	32	sum-	.	.	2f\	i-	.	.
=60-	=60-	=60-	=60-	=60-	=60-	=60-	=60-	=60-	=60-	=60-
!	!	!	!	!	!LO:LB:g=original	!	!	!	!	!
.	.	.	.	.	1E	sum-	2g\	-ma	1G	-(m)is
!LO:TX:t=P:problem=kreska pseudotaktowa	!	!LO:TX:t=P:problem=kreska pseudotaktowa	!	!	!	!	!	!	!	!
2C#X/	.	2C#X/	.	.	.	.	2a\	sum-	.	.
!LO:LB:g=original	!	!	!	!	!LO:TX:t=P:problem=kreska pseudotaktowa	!	!	!	!	!
2D\	-mis	2D,</	.	-mis	1D	-mis	2d,<\	-(m)is	2Fny,</	.
!	!	!	!	!	!	!	!LO:TX:t=P::problem=kreska pseudotaktowa&colon;między nutą a kropką	!	!LO:TX:t=P::problem=kreska pseudotaktowa&colon;między nutą a kropką	!
2.GG/	i-	2.GG/	.	i-	.	.	[<2d\	i-	[<2B-X\	i-
=61-	=61-	=61-	=61-	=61-	=61-	=61-	=61-	=61-	=61-	=61-
!	!	!	!	!	!	!	!LO:N:xstem:cue	!	!LO:N:xstem:cue	!
.	.	.	.	.	1G	i-	4d\]	.	4B-\]	.
4AA/	.	4AA/	.	.	.	.	4cny/	.	4A/	-ma
!LO:TX:t=P:problem=kreska pseudotaktowa	!	!LO:TX:t=P:problem=kreska pseudotaktowa	!	!	!	!	!	!	!	!
2BB-X/	.	2BB-X/	.	.	.	.	4B-X/	.	1G	.
!	!	!	!	!	!	!	!LO:TX:t=P:problem=kreska pseudotaktowa	!	!	!
.	.	.	.	.	.	.	4G/	-ma	.	.
2.Cny/	.	2.Cny/	.	.	1E	.	4g\	sum-	.	.
.	.	.	.	.	.	.	4f\	.	.	.
!	!	!	!	!	!	!	!	!	!LO:TX:t=P::problem=kreska pseudotaktowa&colon;między nutą a kropką	!
.	.	.	.	.	.	.	4e\	.	[<2cny\	sum-
!	!	!LO:TX:t=P:problem=kreska pseudotaktowa	!	!	!	!	!LO:TX:t=P:problem=kreska pseudotaktowa	!	!	!
4BB-X/	.	4BB-X/	.	.	.	.	4c\	.	.	.
=62-	=62-	=62-	=62-	=62-	=62-	=62-	=62-	=62-	=62-	=62-
!	!	!	!	!	!	!	!LO:TX:t=P:problem=kreska pseudotaktowa	!	!LO:N:xstem:cue	!
2.AA/	-ma	2.AA/	6	.	1F	-ma	1f	.	4c\]	.
.	.	.	.	.	.	.	.	.	4B-X\	.
.	.	.	.	.	.	.	.	.	2.A/	.
!LO:TX:t=P:problem=kreska pseudotaktowa	!	!LO:TX:t=P:problem=kreska pseudotaktowa	!	!	!	!	!	!	!	!
4GG/	.	4GG/	.	-ma	.	.	.	.	.	.
!	!	!	!	!	!LO:TX:t=P:problem=kreska pseudotaktowa	!	!	!	!	!
2FF/	.	2FF/	.	.	1A	.	2c,<\	-mis,	.	.
.	.	.	.	.	.	.	.	.	4G/	.
*	*ij	*	*	*	*	*	*	*	*	*
!	!	!	!	!	!	!	!LO:TX:t=P:problem=kreska pseudotaktowa	!	!LO:TX:t=P:problem=kreska pseudotaktowa	!
1F\	i-	1F\	32	sum-	.	.	2c\	i-	2F/	.
=63-	=63-	=63-	=63-	=63-	=63-	=63-	=63-	=63-	=63-	=63-
.	.	.	.	.	1G	sum-	2d\	-ma	2B-X\	.
!	!	!	!	!	!	!	!LO:TX:t=P:problem=kreska pseudotaktowa	!	!	!
1E	.	1E	32	.	.	.	2e\	.	2c\	.
.	.	.	.	.	1F	.	2f\	.	1.A	.
!	!	!LO:TX:t=P:problem=kreska pseudotaktowa	!	!	!	!	!	!	!	!
2D\	-ma	2D\	.	.	.	.	1d\	sum-	.	.
*	*Xij	*	*	*	*	*	*	*	*	*
=64-	=64-	=64-	=64-	=64-	=64-	=64-	=64-	=64-	=64-	=64-
!LO:TX:t=P:problem=kreska pseudotaktowa	!	!LO:TX:t=P:problem=kreska pseudotaktowa	!	!	!	!	!	!	!	!
1AA	sum-	1AA	.	.	1E	.	.	.	.	.
!	!	!	!	!	!	!	!LO:TX:t=P:problem=kreska pseudotaktowa	!	!LO:TX:t=P:problem=kreska pseudotaktowa	!
.	.	.	.	.	.	.	2c#X\	.	2A/	.
!	!	!	!	!	!LO:TX:a:t=4	!	!	!	!	!
!	!	!	!	!	!LO:TX:b:i:t=alleluia utsupra	!	!	!	!	!
2D,<\	-mis	2D,<\	.	-mis	1%5D;>	-mis.	2d,<\	-mis,	2A\	-mis
*	*ij	*	*	*	*	*	*	*	*	*
1G\	i-	1GG/	-	i-	.	.	1d\	i-	1B-X\	i-
=65-	=65-	=65-	=65-	=65-	=65-	=65-	=65-	=65-	=65-	=65-
.	.	.	.	.	.	.	.	.	.	.
!	!	!LO:TX:t=P:problem=kreska pseudotaktowa	!	!	!	!	!LO:TX:t=P:problem=kreska pseudotaktowa	!	!LO:TX:t=P:problem=kreska pseudotaktowa	!
2D,<\	-ma	2D\	.	-ma	.	.	2f#X\	-ma	2A\	-ma
1GG	sum-	1GG	-	sum-	.	.	1g	sum-	1B-X	sum-
=66-	=66-	=66-	=66-	=66-	=66-	=66-	=66-	=66-	=66-	=66-
*custos:D	*	*custos:D	*	*	*	*	*	*	*	*
!LO:TX:b:i:t=alleluia	!	!LO:TX:b:i:t=alleluia utsupra	!	!	!	!	!LO:TX:b:i:t=alleluia\nutsupra	!	!LO:TX:b:i:t=alleluia ut\nsupra	!
0D;	-mis	0D;	.	-mis.	.	.	0f#X;	-mis.	0A;	-mis.
*	*Xij	*	*	*	*	*	*	*	*	*
=-	=-	=-	=-	=-	=-	=-	=-	=-	=-	=-
*-	*-	*-	*-	*-	*-	*-	*-	*-	*-	*-
!!!system-decoration: [(s1,s2,s3,s4)][(s5)]
!!!RDF**kern: < = below
!!!RDF**kern: > = above
!!!ENC: Marta Chmielewska
!!!END: 2021-08-05
!!!ENC: Katarzyna Serwa
!!!END: 2021-07-13
!!!YEC: Copyright 2022 Narodowy Instytut Fryderyka Chopina (https://polishscores.org)
!!!YEM: License CC-BY-4.0 (https://creativecommons.org/licenses/by/4.0)
